X:1039
%%etbk:tnset id:79,pos:3,rep:3
%%etbk:site1 http://www.thesession.org/tunes/display/1634
T: Lark On The Strand, The
Z: Piano Box Version by Martin Fleischmann (www.boxplayer.ch)
M: 6/8
L: 1/8
R: jig
K: Gmaj
|: "D"!2!A3 {c}AGA | "G"!3!B!1!G!2!E !1!G2G | !2!ABA !1!G!2!B!4!d | "C"!2!e2e {g}e!1!d!3!B |
"D"!2!A3 {c}AGA | "G"!3!B!1!G!2!E !1!G !3!(3G!2!G!1!G | !1!GBA GAB | !5!dBG !3!BdB :|
|: "G"!1!G!2!B!3!d !5!g2!3!g | !3!gba !3!ggg | !1!G!2!B!3!d !5!g2!1!d | "C"!2!e2e {g}e!1!d!2!B |
"G"!1!G!2!B!3!d !5!g!1!G!5!g | !3!gba !3!ggg | "D"!4!aba age | {g}!2!edg e!1!d!2!B :|

